working/epson_1200u.ti3
CTI3   

DESCRIPTOR "Argyll Calibration Target chart information 3"
ORIGINATOR "Argyll target"
CREATED "Thu Dec  5 14:15:06 2024"
DEVICE_CLASS "INPUT"
COLOR_REP "XYZ_RGB"

NUMBER_OF_FIELDS 10
BEGIN_DATA_FORMAT
SAMPLE_ID XYZ_X XYZ_Y XYZ_Z RGB_R RGB_G RGB_B STDEV_R STDEV_G STDEV_B 
END_DATA_FORMAT

NUMBER_OF_SETS 288
BEGIN_DATA
A01 4.07 3.43 2.55 27.0802 17.3139 21.9005 0.569343 0.681287 0.787539 
A02 4.89 3.32 2.14 32.2706 15.2701 20.4958 0.567176 0.637381 0.710211 
A03 5.65 3.19 1.74 37.2662 13.339 18.8626 0.500217 0.64741 0.708703 
A04 6.19 3.45 1.88 39.1775 13.1113 19.1865 0.486455 0.77816 0.736151 
A05 14.1 12.25 9.25 47.3716 28.9679 34.4732 0.536691 0.561925 0.595566 
A06 16.42 12.3 8.16 56.8403 26.6858 33.3552 0.509035 0.469755 0.560881 
A07 18.75 12.1 7.09 66.2385 23.5832 32.0456 0.550409 0.501558 0.576404 
A08 21.47 11.53 5.82 76.1165 20.4317 31.4751 0.587002 0.699515 0.779318 
A09 44.76 44.23 35.78 79.9575 65.5112 68.3899 0.808143 0.604024 0.709469 
A10 46.93 43.84 34.44 87.0616 63.8573 68.2272 0.884391 0.660323 0.620133 
A11 49.02 43.64 33.22 93.7327 62.3563 67.8941 0.998868 0.647717 0.673551 
A12 49.98 42.43 31.3 98.8641 60.3483 67.0129 0.991897 0.741499 0.778033 
A13 75.5 78.68 67.64 99.9833 99.6251 99.9553 0.250742 0.689712 0.389515 
A14 76.4 78.97 67.65 99.999 99.9555 99.986 0.0450973 0.721959 0.430563 
A15 76.27 79.2 65.56 99.9992 99.6383 99.3778 0.0344694 0.493145 0.836364 
A16 76.23 78.98 66.13 99.9988 99.8744 99.9251 0.0478741 0.676858 0.625533 
A17 75.45 77.86 64.75 99.9992 98.8377 98.3196 0.280064 0.97102 0.874363 
A18 75.27 78.57 65.53 99.9698 99.3768 98.9191 0.387647 0.659616 0.834704 
A19 75.73 78.5 67.57 99.8633 98.1154 99.3903 0.551617 0.931909 0.772777 
A20 1.57 1.22 0.82 23.8198 19.6105 23.4597 1.0152 1.53657 1.64059 
A21 5.78 3.7 0.88 38.2257 18.0303 19.7176 0.493426 0.666608 0.759015 
A22 11.02 6.32 0.94 53.4734 18.4167 19.9405 0.568092 0.540862 0.626879 
B01 3.87 3.43 2.06 26.1733 17.7049 20.3623 0.502587 0.596737 0.800611 
B02 4.48 3.37 1.21 30.5354 15.8852 17.2238 0.499149 0.537745 0.712661 
B03 5.1 3.32 0.6 34.6203 14.3525 14.9245 0.544287 0.704304 0.982039 
B04 5.64 3.58 0.6 36.816 14.4544 14.7695 0.678917 1.00963 1.10231 
B05 14.1 12.24 6.9 49.0008 28.7272 29.2381 1.15726 1.87597 1.66935 
B06 16.08 12.17 4.71 58.0676 26.2595 24.3479 0.542985 0.451666 0.651503 
B07 18.54 12.17 2.89 67.9165 23.1563 20.4241 0.524242 0.540337 0.849287 
B08 20.93 11.62 1.22 77.3517 20.0556 17.5878 0.525416 0.665208 1.01707 
B09 44.43 44.13 33.46 80.7692 65.6857 65.4013 0.583358 0.572938 0.823292 
B10 46.61 44.14 30.14 88.1755 64.329 61.6407 0.542203 0.515682 0.688689 
B11 47.96 43.48 26.42 94.5797 62.409 58.045 0.537367 0.57373 0.756424 
B12 49.08 42.57 23 99.9814 60.7712 55.4565 0.183833 0.680158 0.773814 
B13 70.05 74.96 67.06 94.6199 98.8066 99.8856 0.580632 0.534413 0.400923 
B14 72.28 71.96 65.76 100 93.5758 99.9986 1.1152e-14 0.564043 0.0468158 
B15 74.71 77.98 58.88 100 99.5822 92.361 1.1152e-14 0.18883 0.766754 
B16 64.41 66.71 56.86 94.5802 90.6968 92.2472 0.533617 0.586386 0.786129 
B17 70.42 70.51 57.35 100 91.7425 92.3176 1.1152e-14 0.613915 0.808258 
B18 68.26 73.67 58.34 94.176 97.6594 91.8005 0.621924 0.520788 0.860897 
B19 66.22 68.11 65.17 92.1578 90.3103 99.3441 0.715411 0.837294 0.8563 
B20 3.25 2.32 0.8 30.2968 19.3687 22.3743 0.749007 1.27448 1.62714 
B21 9.14 5.37 0.85 49.4147 18.4637 19.64 0.504005 0.637932 0.732581 
B22 31.21 26.74 13.62 75.9597 44.3126 41.1688 0.532659 0.528283 0.653565 
C01 5.19 5.01 2.73 28.5826 21.5324 22.3608 0.663058 0.716876 0.809574 
C02 5.51 5.03 1.73 30.6344 20.4001 18.2988 0.478502 0.64283 0.709167 
C03 5.73 4.9 0.78 32.4631 19.3272 14.2963 0.586405 0.600759 0.753931 
C04 6.44 5.51 0.82 34.9805 20.8211 14.4688 0.567183 0.707732 0.820804 
C05 25.91 24.73 12.4 63.5528 44.5995 36.5109 0.565727 0.505311 0.581631 
C06 27.57 24.33 6.54 72.282 42.2511 25.3222 0.522117 0.547156 0.736221 
C07 29.61 24.26 2.93 79.7782 40.3979 16.8095 0.569595 0.522512 0.590674 
C08 30.91 24.37 1.36 83.4844 40.4123 12.8359 0.491873 0.646105 1.01234 
C09 51.42 51.86 37.05 87.3197 72.9337 67.5068 0.561233 0.558272 0.947501 
C10 52.58 51.55 29.99 93.6201 72.0411 59.4265 0.499045 0.479109 0.721017 
C11 53.44 51.17 24.37 98.5404 70.6858 52.2273 0.522988 0.6108 0.678858 
C12 54.22 50.72 19.13 100 69.8248 46.2884 1.11518e-14 0.641589 0.781659 
C13 61.85 69.05 66.01 82.3584 95.7922 99.112 0.662157 0.538819 0.819652 
C14 66.76 62.82 62.85 99.9996 83.4264 99.6118 0.0583877 0.596126 0.46972 
C15 72.64 76.29 48.87 100 97.4005 79.8965 1.1152e-14 0.443443 0.814989 
C16 50.82 52.67 45.11 82.6257 77.7614 80.1796 0.686458 0.687788 0.88561 
C17 62.87 59.97 45.73 99.9998 79.5837 80.3676 0.0184762 0.605663 0.802496 
C18 58.09 66.13 48.01 82.0943 92.3732 79.5394 0.727839 0.581741 0.883515 
C19 54.32 55.21 61.44 79.584 79.0464 96.9882 0.757496 0.774675 0.786716 
C20 2.04 1.69 0.75 25.3688 19.3272 22.4012 0.597712 0.945082 1.36014 
C21 24.64 18.68 5.57 73.3383 34.3861 28.6101 0.496257 0.493207 0.665753 
C22 37.54 34.44 19.68 79.7853 53.2816 48.3839 0.529787 0.542233 0.644286 
D01 4.78 4.97 2.81 25.8995 21.9074 22.1674 0.757647 0.746713 0.933824 
D02 4.75 4.97 1.77 26.306 21.5223 17.9489 0.526307 0.507734 0.720048 
D03 5.03 5.33 0.88 26.8932 22.2127 13.8098 0.560018 0.470712 0.667082 
D04 5.22 5.54 0.91 28.26 23.4991 14.7525 0.662673 0.588526 0.793843 
D05 29.14 30.4 15.96 62.3665 52.9692 41.1229 0.653502 0.571475 0.66137 
D06 28.73 30.18 8.61 64.6911 53.021 27.4506 0.637673 0.570701 0.71824 
D07 28.21 30.02 4.48 64.3766 54.12 17.6546 0.783353 0.558903 0.608849 
D08 28.08 29.78 1.8 63.7863 55.8113 10.9801 0.778266 0.525188 0.889724 
D09 58.47 60.89 44.06 89.9288 82.797 73.8888 0.69562 0.566201 0.899964 
D10 58.29 60.71 35.01 93.3591 82.7635 63.2723 0.660213 0.578785 0.736885 
D11 57.59 60.4 27.85 94.8612 82.932 53.9559 0.682257 0.525898 0.734452 
D12 55.07 57.64 9.57 95.7389 81.5794 26.8399 0.642223 0.449807 0.753301 
D13 54.57 63.41 64.75 71.4933 93.217 98.3007 0.717299 0.53509 0.833232 
D14 61.31 54.29 59.64 99.9566 74.2795 97.8237 0.267778 0.485365 0.570847 
D15 70.46 74.15 39.24 100 94.6194 67.8863 1.1152e-14 0.481862 0.793072 
D16 39.59 40.96 34.6 71.9393 66.6608 68.7588 0.654759 0.541532 0.695246 
D17 55.68 50.38 35.31 99.965 68.7878 68.9851 0.2506 0.485153 0.738054 
D18 48.95 58.71 38.08 71.6473 87.1164 68.0906 0.713302 0.476387 0.645157 
D19 44.28 44.17 57.31 69.2672 69.3924 94.5066 0.623008 0.748671 0.765644 
D20 15.04 11.5 3.28 56.4972 28.7522 26.4502 0.495422 0.80702 1.34507 
D21 23.53 22.75 13.33 59.9423 44.3141 40.8655 0.489702 0.498803 0.667788 
D22 41.5 39.62 22.7 81.6487 59.2333 51.9089 0.554542 0.501153 0.740858 
E01 4.49 5.04 2.8 24.0436 22.5499 22.2495 0.501633 0.422371 0.634171 
E02 4.04 4.98 1.77 21.9583 22.4505 17.5718 0.575725 0.453279 0.686768 
E03 4.1 5.5 0.99 20.4473 24.0086 13.6797 0.634957 0.469655 0.728921 
E04 3.71 4.98 0.95 19.8211 23.2757 13.7909 0.801736 0.570337 0.78243 
E05 13.83 15.69 8.92 38.4648 38.0749 31.1877 0.660678 0.466281 0.564985 
E06 12.62 15.67 5.47 35.5813 39.558 23.2598 0.683723 0.54469 0.671403 
E07 11.58 15.75 3.07 32.0629 41.7204 16.7006 0.863643 0.531761 0.72518 
E08 10.79 15.78 1.57 28.5373 44.5429 11.8193 0.947783 0.559221 0.973487 
E09 40.68 43.78 31.6 69.8041 68.1435 61.2031 0.85982 0.629476 0.779493 
E10 39.28 43.55 26.52 68.67 69.452 54.8726 0.768684 0.503252 0.638102 
E11 37.93 43.79 22.11 66.7594 71.3541 48.6391 0.604222 0.495949 0.762249 
E12 32.62 41.97 11.08 57.5969 74.0179 31.3489 0.702412 0.472988 0.765634 
E13 47.06 57.18 63.21 59.5466 88.7135 97.2545 0.661428 0.509832 0.831563 
E14 55.77 46.2 55.85 97.3956 65.1128 95.0753 0.725542 0.583964 0.725485 
E15 68.33 71.76 30.5 100 91.3454 56.5472 1.1152e-14 0.58017 0.822725 
E16 29.28 30.35 25.47 61.5198 55.8792 57.9893 0.665662 0.655867 0.637316 
E17 48.78 41.62 26.17 97.5403 58.1723 58.0245 0.544525 0.492513 0.618658 
E18 39.92 50.78 29.18 61.0935 80.831 56.8652 0.695896 0.466933 0.709649 
E19 35.05 34.17 52.59 58.4546 59.5995 90.597 0.618703 0.599733 0.65414 
E20 25.83 17.93 1.33 79.4224 31.3618 19.1414 0.586971 0.605954 1.18451 
E21 18.42 15.29 3.32 61.2743 32.8455 22.1933 0.65529 0.995791 1.44022 
E22 31.71 27.38 9.58 78.0375 44.7261 33.1723 0.553025 0.469297 0.660385 
F01 1.77 2.21 1.6 16.1908 17.4392 19.3889 0.600611 0.51303 0.737438 
F02 1.33 2.17 1.27 13.324 17.6252 17.7082 0.940663 0.745227 0.878102 
F03 1.39 2.57 1.37 11.7273 18.4431 17.2008 1.36184 0.970748 1.09732 
F04 1.21 2.12 1.19 11.3471 16.9941 16.3765 0.714902 0.597165 0.823711 
F05 7.58 9.33 6.82 24.9848 29.6359 28.7969 0.607754 0.485338 0.545342 
F06 6.35 9.44 5.79 19.4354 31.8084 26.1171 0.648571 0.454633 0.625583 
F07 5.13 9.39 4.89 14.0615 33.7233 23.5723 0.635129 0.425317 0.660785 
F08 3.93 9.08 4.04 11.1398 35.6754 22.619 0.903435 0.579115 0.9829 
F09 40.48 43.88 35.61 66.6598 68.5652 66.9695 0.549915 0.535483 0.714454 
F10 38.38 43.63 34.29 62.7114 70.8895 66.1445 0.57052 0.438203 0.624355 
F11 37.06 44.18 33.24 58.7028 73.2908 64.506 0.58259 0.492076 0.6419 
F12 29.96 41.95 27.66 44.4705 75.9474 57.467 0.576712 0.491435 0.713727 
F13 40.39 51.25 61.33 49.0409 84.3332 96.2326 0.804949 0.462927 0.654035 
F14 50.35 38.78 51.8 94.4931 56.5581 92.4702 0.684743 0.507573 0.684043 
F15 66.27 69.16 23.57 100 88.2921 46.9551 1.1152e-14 0.566036 0.899158 
F16 21.12 21.91 18.55 52.1455 46.5211 49.1058 0.626032 0.557479 0.635947 
F17 42.7 34.13 19.22 94.5316 49.4216 49.3676 0.531207 0.481222 0.696037 
F18 32.14 43.51 22.24 51.3676 74.9552 48.1892 0.701673 0.460476 0.653426 
F19 27.06 25.55 47.59 49.0602 51.3926 87.0563 0.622445 0.527959 0.574591 
F20 27.77 26.57 13.41 66.6012 47.8091 40.7271 0.590836 0.467431 0.879718 
F21 35.85 32.68 12.37 80.7635 51.3494 36.8756 0.534893 0.474201 0.638835 
F22 40.98 38.4 17.66 84.037 57.2093 44.2621 0.645895 0.471982 0.76121 
G01 2.76 3.44 3.24 17.5575 20.0513 23.9445 0.602488 0.580596 0.644215 
G02 2.26 3.42 3.53 13.7332 20.3344 23.9883 0.637185 0.54754 0.610286 
G03 2.14 3.8 4.26 11.1057 21.6626 25.2788 0.70107 0.543848 0.552275 
G04 1.89 3.31 3.55 10.9769 20.4307 23.9395 0.573221 0.487661 0.515345 
G05 10.19 12.33 11.31 27.8723 34.3509 37.2644 0.418312 0.498294 0.586456 
G06 8.83 12.4 11.94 21.088 36.5859 38.4395 0.470126 0.437743 0.676319 
G07 7.39 12.3 12.74 14.8997 38.8558 40.3414 0.618466 0.451117 0.746887 
G08 5.87 11.88 13.24 10.2566 40.3646 42.0166 0.611528 0.46124 0.830137 
G09 40.31 43.82 37.86 65.3145 68.9383 70.4645 0.791418 0.706957 0.716313 
G10 37.91 43.63 38.68 59.247 71.3966 71.8137 0.542285 0.434141 0.709728 
G11 36.11 43.6 39.72 54.1261 73.5575 73.3334 0.532103 0.523308 0.712434 
G12 29.88 41.98 41.86 38.4159 76.5808 76.0089 0.524492 0.481586 0.767762 
G13 34.63 45.84 59.37 40.4278 80.1505 95.5233 0.634198 0.476043 0.555093 
G14 45.24 32.27 47.68 91.1178 48.942 89.0123 0.698945 0.599003 0.764765 
G15 64.4 66.57 17.8 100 84.8659 38.0126 1.1152e-14 0.536244 0.852286 
G16 14.79 15.33 12.91 44.0023 38.4388 41.196 0.668273 0.665722 0.695536 
G17 37.09 27.6 13.5 90.6566 41.1345 41.0269 0.562801 0.515291 0.676432 
G18 25.79 37.18 16.6 43.4871 69.1946 39.7853 0.607407 0.544987 0.793673 
G19 20.81 18.75 42.86 41.16 44.0217 82.4047 0.553528 0.485029 0.634709 
G20 37.8 36.6 16.24 78.3843 56.8682 42.3478 0.641998 0.474714 0.859796 
G21 36.75 35.21 10.93 79.7364 55.3692 32.6944 0.613817 0.441993 0.6566 
G22 47.97 44.61 3.12 95.0387 63.0594 12.9896 0.613974 0.459677 0.711941 
H01 3.01 3.46 3.9 18.0818 19.3323 25.5499 0.668184 0.594653 0.64453 
H02 2.62 3.4 5.12 14.0186 19.2829 27.8008 0.576914 0.499062 0.623266 
H03 2.29 3.33 6.39 10.1936 19.8016 30.9837 0.734964 0.543886 0.756519 
H04 2.41 3.52 6.83 10.8509 21.1615 32.5415 0.78314 0.577991 0.675582 
H05 10.83 12.36 13.77 29.0847 34.1463 42.7267 0.598534 0.493131 0.66348 
H06 9.96 12.45 17.31 22.7034 36.2191 48.6135 0.568574 0.473205 0.729395 
H07 8.92 12.32 21.42 15.4403 38.1394 55.46 0.560501 0.426719 0.782252 
H08 7.66 11.88 25.58 9.56172 39.9998 62.4049 0.743188 0.543227 0.820095 
H09 40.74 43.74 41.41 65.1206 68.4254 75.6889 0.708743 0.595254 0.73649 
H10 39.6 43.88 45.44 60.7474 71.012 80.9309 0.577727 0.455788 0.642123 
H11 37.88 43.55 49.13 54.9797 72.6799 85.9098 0.528348 0.517702 0.737618 
H12 32.95 42.61 57.91 39.0682 76.2113 95.465 0.574793 0.610902 0.651214 
H13 29.16 40.33 56.84 32.1672 75.6326 94.2492 0.639242 0.503494 0.590822 
H14 40.03 26.12 43.17 87.473 41.5072 85.3854 0.687491 0.518935 0.727634 
H15 62.6 63.94 13.09 99.9996 81.9582 30.4099 0.110013 0.525504 0.793223 
H16 9.71 10.04 8.69 36.4117 30.99 33.7526 0.589876 0.595242 0.545783 
H17 32.05 22.03 9.17 86.984 33.8767 34.0435 0.522367 0.466552 0.646985 
H18 20.14 31.21 12.02 35.652 63.8231 32.9575 0.63945 0.492909 0.651726 
H19 15.46 12.98 37.87 33.307 36.9818 78.0308 0.621026 0.512281 0.516215 
H20 43.15 43.94 16.97 80.8351 64.7971 41.5858 0.640786 0.488082 0.74283 
H21 33.26 34.36 22.38 66.8323 57.6119 50.6378 0.682773 0.4535 0.604498 
H22 37.09 40.41 12.74 71.1683 64.2833 34.1233 0.784777 0.483448 0.657612 
I01 4.88 4.99 6.67 23.0244 22.0926 32.2008 0.458582 0.455393 0.543887 
I02 5 4.99 9.87 20.2619 22.2396 38.2487 0.708261 0.635155 0.622193 
I03 5.04 5.02 13.56 16.4452 23.003 45.1425 0.634836 0.533268 0.560682 
I04 4.85 4.78 19.93 9.77508 24.0762 55.6161 0.920944 0.663082 0.517155 
I05 15.42 15.92 17.12 39.2366 37.5593 48.2651 0.560763 0.444451 0.599959 
I06 15.51 15.87 21.82 37.0239 38.4069 56.144 0.507269 0.436717 0.671798 
I07 15.63 15.89 26.66 34.6935 39.243 63.6025 0.525567 0.401491 0.667897 
I08 15.41 15.59 40.7 25.6389 42.1538 81.9154 0.829684 0.64578 0.574049 
I09 42.41 43.77 41.31 70.2509 67.4559 76.6906 0.591989 0.451314 0.68879 
I10 42.72 44.07 45.9 69.1518 68.6628 82.4588 0.565407 0.484212 0.59506 
I11 42.51 43.75 49.45 67.3931 69.0355 87.2683 0.541228 0.507517 0.671581 
I12 41.83 42.86 57.06 63.4475 69.1059 96.1671 0.706104 0.582591 0.839003 
I13 24.86 35.75 54.38 25.863 71.1174 92.651 0.659662 1.8799 2.89536 
I14 35.74 21.49 39.24 84.6225 35.3251 81.9315 0.599269 0.445729 0.872336 
I15 60.52 60.84 9.14 100 78.9394 23.1304 1.1152e-14 0.442299 0.672604 
I16 6.16 6.36 5.32 30.4938 25.1815 27.466 0.609037 0.653436 0.632135 
I17 27.84 17.76 5.69 83.4917 27.8782 27.4346 0.513949 0.575043 0.7331 
I18 15.52 25.91 8.17 28.7414 58.4885 26.1864 0.640197 0.429174 0.65225 
I19 11.56 8.89 33.52 26.4323 31.3414 73.3644 0.596568 0.530466 0.565671 
I20 43.92 48.37 17.91 75.5572 71.3889 40.4462 0.624898 0.581087 0.791183 
I21 11.78 15.8 4.15 34.045 42.7157 21.6256 0.66311 0.486861 0.603895 
I22 30.04 38.69 19.19 51.2771 67.5279 43.0752 0.766564 0.566422 0.706234 
J01 2.48 2.17 3.5 19.5304 16.5082 25.98 0.611495 0.583636 0.567289 
J02 2.82 2.16 5.65 18.7502 15.7274 30.8422 0.562781 0.449761 0.616387 
J03 3.27 2.18 8.95 17.3538 15.6587 38.0571 0.895204 0.798129 0.597968 
J04 4.05 2.1 19.08 9.95201 16.8368 55.4852 0.794227 0.459503 0.47293 
J05 12.49 12.15 13.82 36.8051 31.2293 43.7985 0.5492 0.466388 0.661922 
J06 13.35 12.18 17.46 38.3563 31.4246 50.4313 0.530268 0.489819 0.628346 
J07 14.34 12.26 22.37 38.8712 31.7784 58.8779 0.536832 0.437548 0.702968 
J08 16.16 11.95 36.2 38.0555 32.9493 78.4986 0.66729 0.538536 0.582164 
J09 43.3 43.84 41.11 72.5714 66.4255 76.3556 0.604253 0.507842 0.64947 
J10 43.94 43.92 45.33 73.2638 67.1176 81.8319 0.55879 0.43657 0.626965 
J11 45.03 43.96 49.12 74.3263 67.0467 86.8484 0.585767 0.47726 0.703087 
J12 46.66 43.36 56.35 76.0436 65.7712 95.7164 0.601774 0.492377 0.527302 
J13 20.77 31.1 51.46 20.3267 66.2707 90.0646 0.47575 0.44189 0.625693 
J14 31.44 17.24 34.97 80.4726 29.8093 77.5465 0.605297 0.419108 0.792282 
J15 58.68 58.03 6.42 99.9998 75.6981 17.698 0.0184762 0.452773 0.893036 
J16 3.53 3.65 3.13 24.8957 20.2532 22.5498 0.601721 0.673767 0.594281 
J17 23.95 14.09 3.39 79.2218 22.3693 22.3201 0.422241 0.475425 0.648197 
J18 11.6 21.11 5.53 21.9663 52.9639 20.6416 0.748266 0.391214 0.655938 
J19 8.39 5.64 29.01 19.5488 25.3263 68.4047 0.586349 0.506385 0.551766 
J20 32.1 41.23 24.6 50.5049 69.3559 50.6439 0.705666 0.774067 0.703997 
J21 4.79 8.91 1.62 16.1046 34.5296 15.6816 0.588098 0.574537 0.69865 
J22 1.55 2.46 1.02 14.8567 19.829 17.8832 0.532125 0.595991 0.671255 
K01 5.84 4.92 6.03 29.4265 20.2851 30.9809 0.5512 0.593383 0.677383 
K02 7.16 4.88 8.37 33.7711 18.4222 36.128 0.54279 0.610645 0.649028 
K03 8.5 4.78 10.92 38.4311 16.4432 41.0928 0.553561 0.81066 0.683804 
K04 9.52 4.63 13.05 41.6969 15.5761 45.4275 0.547713 0.62613 0.667628 
K05 16.95 15.48 16.4 47.0597 34.3663 47.4886 0.576839 0.470755 0.673061 
K06 19.2 15.51 20.15 53.3427 32.6489 53.972 0.644912 0.43438 0.697016 
K07 21.86 15.77 24.4 59.5702 31.4756 61.3178 0.536206 0.383452 0.662275 
K08 27.64 15.38 34.35 72.3053 28.095 76.5328 0.491185 0.629128 0.842063 
K09 44.37 43.84 40.93 76.209 65.0852 75.6853 0.575768 0.575247 0.757689 
K10 47.1 44.17 44.74 81.6706 64.6474 81.1676 0.524018 0.542693 0.792758 
K11 49.3 44.08 48.65 86.1609 63.2582 86.4986 0.492394 0.501406 0.73735 
K12 52.69 42.21 53.88 94.2307 58.4054 93.9564 0.55598 0.50606 0.681662 
K13 17.15 26.64 48.04 16.1138 60.8056 86.6561 0.434528 0.495426 0.709795 
K14 27.22 13.59 30.59 76.026 24.7378 72.2001 0.588419 0.51507 0.84522 
K15 56.2 54.28 4.06 99.979 71.7115 12.7509 0.226511 0.499735 0.67661 
K16 1.76 1.81 1.54 20.6517 16.2094 17.9476 0.801534 0.759995 0.655853 
K17 20.3 11.01 1.74 74.2217 17.6889 17.4339 0.596357 0.601464 0.663925 
K18 8.32 16.61 3.43 16.4983 46.9997 15.7757 0.77881 0.467288 0.599882 
K19 5.99 3.32 24.36 14.1973 19.6811 62.3409 0.70745 0.59547 0.622527 
K20 2.78 3.6 2.36 17.2114 19.5622 21.5541 0.765931 0.716145 0.920612 
K21 1.61 2.15 1.88 14.6027 16.9024 20.3176 0.605055 0.627949 0.70584 
K22 2.02 2.56 3.52 15.0339 18.4544 25.4303 0.547588 0.493112 0.568651 
L01 4.11 3.36 3.22 26.6819 17.3761 24.3898 0.49765 0.566659 0.687086 
L02 4.92 3.24 3.49 31.1897 14.8931 24.5044 0.420148 0.483587 0.709212 
L03 5.93 3.28 3.95 36.1144 14.2597 26.2689 0.493487 0.913326 0.740194 
L04 6.54 3.55 4.15 38.5558 15.0803 27.3214 0.463624 0.659833 0.601477 
L05 14.09 12.18 11.5 45.8682 29.0505 39.1641 0.545248 0.518219 0.598156 
L06 16.78 12.19 12.44 55.5081 26.5751 41.707 0.480727 0.546788 0.594967 
L07 19.68 12.07 13.23 65.0862 23.3613 44.4323 0.501955 0.459635 0.591095 
L08 22.55 11.5 14.34 74.0513 20.1967 47.426 0.448482 0.649255 0.794057 
L09 44.9 43.96 38.13 78.4053 63.7021 70.4165 1.12534 1.11666 1.90098 
L10 47.48 43.88 38.87 85.1207 62.0827 72.5117 0.678276 0.643642 1.04578 
L11 49.67 43.7 40.38 90.6589 60.6374 75.2929 0.688585 0.555056 1.04609 
L12 51.6 42.9 41.46 95.4385 58.0249 77.4451 0.674345 0.555617 1.10701 
L13 12.83 20.7 42.35 12.147 52.9976 80.4377 0.69204 0.512376 0.714108 
L14 22.64 10.25 25.59 69.6542 20.3169 65.3678 0.577108 0.578937 0.683492 
L15 49.17 44.83 1.97 95.6767 61.5102 8.59461 0.696232 0.493822 0.757804 
L16 0.57 0.59 0.48 16.1845 12.9333 14.1169 0.751772 0.790402 0.944249 
L17 15.21 7.56 0.55 64.8834 13.3375 13.8115 0.462048 0.624931 1.09227 
L18 4.49 10.03 1.48 12.313 36.9195 12.296 0.720846 0.460149 0.902989 
L19 3.96 1.67 18.67 10.5238 16.0897 54.2054 0.869132 0.728658 0.569333 
L20 0.75 0.82 0.92 12.6632 12.7565 17.8037 0.739031 0.704257 0.857671 
L21 1.09 0.99 1.16 15.1483 12.9132 17.9838 0.608595 0.66194 0.703308 
L22 2.27 1.78 1.67 20.8993 14.5677 20.1555 0.585645 0.580383 0.667746 
GS00 76.65 79.45 67.79 99.4314 96.5049 96.8433 3.02054 2.24507 2.68815 
GS01 70.31 72.88 61.69 96.0699 92.3969 92.9507 1.21707 1.17183 1.25573 
GS02 64.01 66.43 56.5 91.1306 87.5232 88.7995 0.979856 1.08528 1.2097 
GS03 56.89 59.04 51.05 85.1454 81.3168 83.9289 1.00008 1.03379 1.20021 
GS04 49.88 51.97 43.96 78.6124 74.9053 76.819 0.828607 0.976177 1.13495 
GS05 43.66 45.33 38.46 72.9949 68.712 71.3484 0.88221 0.917841 1.03859 
GS06 38.1 39.72 33.47 67.66 63.4488 65.7074 0.686114 0.847474 0.992582 
GS07 32.65 34.01 28.82 61.9526 57.6364 60.4665 0.738149 0.701392 0.895945 
GS08 28.14 29.24 24.94 56.9535 52.4208 56.031 0.612921 0.602959 0.960484 
GS09 23.82 24.69 20.8 52.3779 47.1362 50.6077 0.587045 0.599881 0.762654 
GS10 20 20.7 17.6 47.5372 42.7857 46.2922 0.548417 0.589211 0.702398 
GS11 16.64 17.27 14.84 43.0237 38.5809 42.6091 0.592726 0.487332 0.648587 
GS12 13.82 14.33 12.24 38.9558 34.607 38.4845 0.492454 0.499975 0.643675 
GS13 11.07 11.44 9.9 34.9772 30.7395 34.6553 0.532736 0.487912 0.622978 
GS14 8.9 9.14 7.95 31.5243 27.3502 31.4738 0.529268 0.455238 0.643257 
GS15 7.03 7.3 6.19 28.1051 24.3591 28.2691 0.658375 0.567103 0.621558 
GS16 5.5 5.64 4.85 25.0458 21.2865 25.3438 0.500734 0.536679 0.587144 
GS17 4.11 4.24 3.68 21.6512 18.4273 22.6627 0.621968 0.489077 0.668225 
GS18 3.01 3.11 2.74 18.7764 15.9982 20.1507 0.601647 0.543288 0.667832 
GS19 2.11 2.16 1.91 16.4078 14.1549 17.8058 0.584981 0.59299 0.726025 
GS20 1.4 1.44 1.24 14.8426 12.8249 16.2203 0.612559 0.617072 0.671735 
GS21 1.07 1.11 0.96 14.0698 12.6739 16.0689 0.690812 0.607387 0.669981 
GS22 0.78 0.81 0.67 13.3275 12.6034 15.9433 0.889973 0.815441 0.814618 
GS23 0.47 0.48 0.45 13.5141 13.6094 16.669 0.925787 0.786972 0.814445 
END_DATA
